src/blocks/card/images/logo-icon-color.svg

<svg width = "40" height = "40" viewBox = "0 0 40 40" fill = "none" xmlns = "http://www.w3.org/2000/svg">
<path d = "M20.0003 27.0587C19.3533 27.0587 18.8239 26.5292 18.8239 25.8822C18.8239 21.3528 15.118 17.6469 10.5886 17.6469C9.94152 17.6469 9.41211 17.1175 9.41211 16.4704C9.41211 15.8234 9.94152 15.2939 10.5886 15.2939C16.4415 15.2939 21.1768 20.0292 21.1768 25.8822C21.1768 26.5292 20.6474 27.0587 20.0003 27.0587Z" fill = "url(#paint0_linear)"/>
<path d = "M30.5884 16.4704C30.5884 17.1175 30.0589 17.6469 29.4119 17.6469C26.6178 17.6469 24.1178 19.0587 22.6472 21.2057C22.3236 20.3822 21.9413 19.6175 21.4707 18.9116C23.4119 16.6763 26.2648 15.2939 29.4119 15.2939C30.0589 15.2939 30.5884 15.8234 30.5884 16.4704Z" fill = "url(#paint1_linear)"/>
<path d = "M20 40C8.97059 40 0 31.0294 0 20C0 8.97059 8.97059 0 20 0C31.0294 0 40 8.97059 40 20C40 31.0294 31.0294 40 20 40ZM20 2.35294C10.2647 2.35294 2.35294 10.2647 2.35294 20C2.35294 29.7353 10.2647 37.6471 20 37.6471C29.7353 37.6471 37.6471 29.7353 37.6471 20C37.6471 10.2647 29.7353 2.35294 20 2.35294Z" fill = "url(#paint2_linear)"/>
<defs>
<linearGradient id = "paint0_linear" x1 = "15.2945" y1 = "15.2939" x2 = "15.2945" y2 = "27.0587" gradientUnits = "userSpaceOnUse">
<stop stop-color = "#BC9CFF"/>
<stop offset = "1" stop-color = "#8BA4F9"/>
</linearGradient>
<linearGradient id = "paint1_linear" x1 = "26.0295" y1 = "15.2939" x2 = "26.0295" y2 = "21.2057" gradientUnits = "userSpaceOnUse">
<stop stop-color = "#6FCF97"/>
<stop offset = "1" stop-color = "#66D2EA"/>
</linearGradient>
<linearGradient id = "paint2_linear" x1 = "20" y1 = "0" x2 = "20" y2 = "40" gradientUnits = "userSpaceOnUse">
<stop stop-color = "#BC9CFF"/>
<stop offset = "1" stop-color = "#8BA4F9"/>
</linearGradient>
</defs>
</svg>

<svg width="40" height="40" fill="none" xmlns="http://www.w3.org/2000/svg"><path d="M20 27.059a1.18 1.18 0 0 1-1.176-1.177c0-4.53-3.706-8.235-8.235-8.235a1.18 1.18 0 0 1-1.177-1.177c0-.647.53-1.176 1.177-1.176a10.582 10.582 0 0 1 10.588 10.588A1.18 1.18 0 0 1 20 27.06Z" fill="url(#a)"/><path d="M30.588 16.47a1.18 1.18 0 0 1-1.176 1.177 8.21 8.21 0 0 0-6.765 3.559 12.044 12.044 0 0 0-1.176-2.294 10.49 10.49 0 0 1 7.94-3.618c.648 0 1.177.53 1.177 1.176Z" fill="url(#b)"/><path d="M20 40C8.97 40 0 31.03 0 20S8.97 0 20 0s20 8.97 20 20-8.97 20-20 20Zm0-37.647C10.265 2.353 2.353 10.265 2.353 20S10.265 37.647 20 37.647 37.647 29.735 37.647 20 29.735 2.353 20 2.353Z" fill="url(#c)"/><defs><linearGradient id="a" x1="15.294" y1="15.294" x2="15.294" y2="27.059" gradientUnits="userSpaceOnUse"><stop stop-color="#BC9CFF"/><stop offset="1" stop-color="#8BA4F9"/></linearGradient><linearGradient id="b" x1="26.029" y1="15.294" x2="26.029" y2="21.206" gradientUnits="userSpaceOnUse"><stop stop-color="#6FCF97"/><stop offset="1" stop-color="#66D2EA"/></linearGradient><linearGradient id="c" x1="20" y1="0" x2="20" y2="40" gradientUnits="userSpaceOnUse"><stop stop-color="#BC9CFF"/><stop offset="1" stop-color="#8BA4F9"/></linearGradient></defs></svg>
